X:1
T:A Wee Drappie O't
M:2/2
L:1/8
K:G
 D2| G2 GA G B,2 C| D2 G3/2 G/2 G2 z A| B3 B/2B/2 B d2 B| A3 D/2D/2 D2|\
 z c| Bd cA G G2 F| EG FE D2 DC| B,/2 D3/2 GF E/2 D3/2 B,D| G2 G/2 A3/2 G2|\
 GA|B-A Bc d2 Bd|e-d cBB-A dc| B/2 A3/2 GF E/2 D3/2 B,D| G2 G/2 A3/2 G2||\
